picto/customs-it.svg

<svg class="color-immutable" width="24" height="24" viewBox="0 0 24 24" fill="none" xmlns="http://www.w3.org/2000/svg"><path d="M0 22.5V1.5C0 0.675 0.675 0 1.5 0H22.5C23.325 0 24 0.675 24 1.5V22.5C24 23.325 23.325 24 22.5 24H1.5C0.675 24 0 23.325 0 22.5Z" fill="#2D327D"/><path d="M18.749 7.5H14.738V6.6C14.738 5.855 14.132 5.25 13.387 5.25H10.612C9.86702 5.25 9.26202 5.855 9.26202 6.6V7.5H5.25002C4.00802 7.5 2.99902 8.507 2.99902 9.75V18.75C2.99902 19.992 4.00802 21 5.25002 21H18.749C19.992 21 21 19.993 21 18.75V9.75C21.001 8.508 19.993 7.5 18.749 7.5ZM13.688 7.5H10.312V6.3H13.688V7.5Z" fill="white"/><path d="M9.77199 8.925C6.85299 8.925 4.48499 11.217 4.48499 14.136C4.48499 17.055 6.85299 19.5 9.77199 19.5C12.691 19.5 15.06 17.055 15.06 14.136C15.06 11.217 12.691 8.925 9.77199 8.925ZM9.77199 18.095C7.68199 18.095 5.98399 16.398 5.98399 14.307C5.98399 12.217 7.68099 10.52 9.77199 10.52C11.862 10.52 13.559 12.217 13.559 14.307C13.559 16.398 11.862 18.095 9.77199 18.095Z" fill="#EB0000"/><path d="M7.72496 14.85H11.85C12.161 14.85 12.413 14.598 12.413 14.287C12.413 13.977 12.161 13.724 11.85 13.724H7.72496C7.41396 13.724 7.16296 13.976 7.16296 14.287C7.16296 14.598 7.41396 14.85 7.72496 14.85Z" fill="black"/><path d="M7.16296 12.307H7.58596C7.66496 12.307 7.73196 12.316 7.78796 12.334C7.84396 12.352 7.89396 12.381 7.93596 12.42C8.03996 12.515 8.09296 12.648 8.09296 12.817C8.09296 12.996 8.04396 13.135 7.94496 13.233C7.90196 13.276 7.85296 13.307 7.79796 13.326C7.74396 13.344 7.67496 13.354 7.59096 13.354H7.16296V12.307ZM7.39196 12.5V13.159H7.56796C7.62196 13.159 7.66496 13.154 7.69696 13.143C7.72896 13.132 7.75696 13.114 7.78096 13.088C7.83596 13.028 7.86396 12.94 7.86396 12.824C7.86396 12.717 7.83796 12.636 7.78696 12.582C7.73496 12.528 7.65896 12.5 7.55896 12.5H7.39196Z" fill="black"/><path d="M8.60398 12.55C8.71698 12.55 8.80998 12.588 8.88198 12.663C8.95298 12.737 8.98898 12.837 8.98898 12.961C8.98898 13.089 8.95098 13.191 8.87498 13.268C8.80398 13.339 8.71098 13.375 8.59698 13.375C8.47498 13.375 8.37898 13.335 8.30698 13.256C8.23798 13.181 8.20398 13.083 8.20398 12.963C8.20398 12.845 8.23698 12.749 8.30398 12.675C8.37898 12.591 8.47898 12.55 8.60398 12.55ZM8.59398 12.712C8.53898 12.712 8.49598 12.734 8.46298 12.779C8.42998 12.824 8.41398 12.885 8.41398 12.963C8.41398 13.044 8.42998 13.105 8.46298 13.148C8.49598 13.191 8.54198 13.213 8.59998 13.213C8.65398 13.213 8.69698 13.193 8.72798 13.154C8.76398 13.11 8.78198 13.046 8.78198 12.963C8.78198 12.885 8.76598 12.824 8.73498 12.781C8.69998 12.734 8.65398 12.712 8.59398 12.712Z" fill="black"/><path d="M9.85297 12.572V13.26C9.85297 13.321 9.84898 13.37 9.84198 13.406C9.83398 13.442 9.82098 13.476 9.80298 13.506C9.74298 13.601 9.63497 13.649 9.47997 13.649C9.26397 13.649 9.14498 13.567 9.12498 13.404H9.33397C9.34797 13.469 9.39897 13.502 9.48497 13.502C9.55097 13.502 9.59698 13.483 9.62298 13.446C9.64298 13.416 9.65398 13.369 9.65398 13.303L9.65497 13.206C9.60197 13.288 9.52398 13.329 9.42298 13.329C9.32498 13.329 9.24698 13.295 9.18898 13.226C9.12998 13.156 9.09998 13.063 9.09998 12.944C9.09998 12.826 9.12998 12.731 9.18898 12.659C9.25098 12.585 9.33097 12.548 9.43097 12.548C9.48297 12.548 9.52598 12.558 9.56098 12.577C9.59598 12.597 9.62797 12.629 9.65697 12.675V12.571H9.85297V12.572ZM9.47598 12.719C9.41798 12.719 9.37398 12.743 9.34398 12.792C9.31998 12.831 9.30797 12.881 9.30797 12.941C9.30797 13.017 9.32598 13.075 9.36098 13.115C9.39198 13.15 9.43097 13.168 9.47997 13.168C9.54197 13.168 9.58798 13.142 9.61898 13.09C9.64298 13.05 9.65497 12.999 9.65497 12.938C9.65497 12.865 9.63698 12.808 9.59998 12.768C9.56998 12.735 9.52898 12.719 9.47598 12.719Z" fill="black"/><path d="M10.726 13.353H10.514C10.505 13.322 10.5 13.296 10.5 13.275C10.435 13.341 10.351 13.374 10.249 13.374C10.169 13.374 10.106 13.355 10.062 13.318C10.011 13.275 9.98499 13.215 9.98499 13.138C9.98499 13.04 10.029 12.973 10.117 12.935C10.153 12.92 10.219 12.906 10.314 12.893C10.396 12.882 10.448 12.871 10.468 12.861C10.488 12.851 10.498 12.83 10.498 12.799C10.498 12.731 10.453 12.697 10.362 12.697C10.314 12.697 10.279 12.706 10.257 12.723C10.235 12.74 10.22 12.77 10.213 12.812H10.017C10.023 12.725 10.056 12.66 10.115 12.616C10.174 12.572 10.258 12.55 10.367 12.55C10.488 12.55 10.577 12.575 10.634 12.624C10.661 12.647 10.678 12.671 10.687 12.698C10.696 12.724 10.7 12.766 10.7 12.822C10.7 12.834 10.699 12.886 10.698 12.979C10.697 13.073 10.697 13.127 10.697 13.141C10.697 13.198 10.699 13.239 10.702 13.266C10.707 13.292 10.714 13.321 10.726 13.353ZM10.498 12.976C10.471 12.993 10.423 13.006 10.352 13.015C10.302 13.023 10.267 13.032 10.245 13.044C10.214 13.061 10.199 13.089 10.199 13.129C10.199 13.161 10.209 13.187 10.23 13.205C10.25 13.223 10.279 13.232 10.316 13.232C10.377 13.232 10.426 13.211 10.464 13.168C10.477 13.153 10.487 13.138 10.492 13.122C10.497 13.106 10.5 13.085 10.5 13.059V12.976H10.498Z" fill="black"/><path d="M11.058 12.574V12.683C11.082 12.65 11.105 12.625 11.126 12.609C11.177 12.569 11.239 12.549 11.312 12.549C11.376 12.549 11.43 12.565 11.474 12.598C11.509 12.624 11.534 12.656 11.548 12.696C11.562 12.735 11.569 12.791 11.569 12.862V13.353H11.362V12.906C11.362 12.856 11.358 12.819 11.349 12.796C11.341 12.775 11.327 12.759 11.308 12.747C11.286 12.734 11.26 12.728 11.231 12.728C11.2 12.728 11.171 12.736 11.145 12.751C11.119 12.766 11.1 12.787 11.088 12.813C11.074 12.843 11.067 12.889 11.067 12.951V13.353H10.86V12.574H11.058Z" fill="black"/><path d="M12.435 13.353H12.223C12.214 13.322 12.209 13.296 12.209 13.275C12.144 13.341 12.06 13.374 11.958 13.374C11.878 13.374 11.815 13.355 11.771 13.318C11.72 13.275 11.694 13.215 11.694 13.138C11.694 13.04 11.738 12.973 11.826 12.935C11.862 12.92 11.928 12.906 12.023 12.893C12.105 12.882 12.157 12.871 12.177 12.861C12.197 12.851 12.207 12.83 12.207 12.799C12.207 12.731 12.162 12.697 12.071 12.697C12.023 12.697 11.988 12.706 11.966 12.723C11.944 12.74 11.929 12.77 11.922 12.812H11.726C11.732 12.725 11.765 12.66 11.824 12.616C11.883 12.572 11.967 12.55 12.076 12.55C12.197 12.55 12.286 12.575 12.343 12.624C12.37 12.647 12.387 12.671 12.396 12.698C12.405 12.724 12.409 12.766 12.409 12.822C12.409 12.834 12.408 12.886 12.407 12.979C12.406 13.073 12.406 13.127 12.406 13.141C12.406 13.198 12.408 13.239 12.411 13.266C12.416 13.292 12.424 13.321 12.435 13.353ZM12.207 12.976C12.18 12.993 12.132 13.006 12.061 13.015C12.011 13.023 11.976 13.032 11.954 13.044C11.923 13.061 11.908 13.089 11.908 13.129C11.908 13.161 11.918 13.187 11.939 13.205C11.959 13.223 11.988 13.232 12.025 13.232C12.086 13.232 12.135 13.211 12.173 13.168C12.186 13.153 12.196 13.138 12.201 13.122C12.206 13.106 12.209 13.085 12.209 13.059V12.976H12.207Z" fill="black"/></svg>

<svg class="color-immutable" width="24" height="24" viewBox="0 0 24 24" fill="none" xmlns="http://www.w3.org/2000/svg"><g clip-path="url(#a)"><path d="M0 22.5v-21C0 .675.675 0 1.5 0h21c.825 0 1.5.675 1.5 1.5v21c0 .825-.675 1.5-1.5 1.5h-21C.675 24 0 23.325 0 22.5Z" fill="#2D327D"/><path d="M18.749 7.5h-4.011v-.9c0-.745-.606-1.35-1.351-1.35h-2.775a1.35 1.35 0 0 0-1.35 1.35v.9H5.25a2.251 2.251 0 0 0-2.251 2.25v9A2.252 2.252 0 0 0 5.25 21h13.499A2.25 2.25 0 0 0 21 18.75v-9a2.25 2.25 0 0 0-2.251-2.25Zm-5.061 0h-3.376V6.3h3.376v1.2Z" fill="#fff"/><path d="M9.772 8.925c-2.919 0-5.287 2.292-5.287 5.211 0 2.919 2.368 5.364 5.287 5.364s5.288-2.445 5.288-5.364-2.369-5.211-5.288-5.211Zm0 9.17a3.79 3.79 0 0 1-3.788-3.788 3.79 3.79 0 0 1 3.788-3.787 3.789 3.789 0 0 1 3.787 3.787 3.79 3.79 0 0 1-3.787 3.788Z" fill="#EB0000"/><path d="M7.725 14.85h4.125a.563.563 0 1 0 0-1.126H7.725a.562.562 0 0 0 0 1.126ZM7.163 12.307h.423c.079 0 .146.009.202.027a.392.392 0 0 1 .148.086.512.512 0 0 1 .157.397c0 .179-.049.318-.148.416a.383.383 0 0 1-.147.093.663.663 0 0 1-.207.028h-.428v-1.047Zm.229.193v.659h.176a.41.41 0 0 0 .129-.016.202.202 0 0 0 .084-.055c.055-.06.083-.148.083-.264 0-.107-.026-.188-.077-.242-.052-.054-.128-.082-.228-.082h-.167ZM8.604 12.55a.37.37 0 0 1 .278.113.414.414 0 0 1 .107.298c0 .128-.038.23-.114.307a.377.377 0 0 1-.278.107.373.373 0 0 1-.29-.119.416.416 0 0 1-.103-.293c0-.118.033-.214.1-.288a.382.382 0 0 1 .3-.125Zm-.01.162a.153.153 0 0 0-.131.067.304.304 0 0 0-.049.184c0 .081.016.142.049.185a.164.164 0 0 0 .137.065c.054 0 .097-.02.128-.059a.296.296 0 0 0 .054-.191.308.308 0 0 0-.047-.182.164.164 0 0 0-.141-.069ZM9.853 12.572v.688c0 .061-.004.11-.011.146a.336.336 0 0 1-.039.1c-.06.095-.168.143-.323.143-.216 0-.335-.082-.355-.245h.209c.014.065.065.098.151.098.066 0 .112-.019.138-.056a.261.261 0 0 0 .031-.143l.001-.097a.26.26 0 0 1-.232.123.29.29 0 0 1-.234-.103.422.422 0 0 1-.089-.282c0-.118.03-.213.089-.285a.3.3 0 0 1 .242-.111c.052 0 .095.01.13.029.035.02.067.052.096.098v-.104h.196v.001Zm-.377.147a.145.145 0 0 0-.132.073.281.281 0 0 0-.036.149c0 .076.018.134.053.174.031.035.07.053.119.053a.151.151 0 0 0 .139-.078.292.292 0 0 0 .036-.152c0-.073-.018-.13-.055-.17a.158.158 0 0 0-.124-.049ZM10.726 13.353h-.212a.293.293 0 0 1-.014-.078.338.338 0 0 1-.251.099.284.284 0 0 1-.187-.056.223.223 0 0 1-.077-.18c0-.098.044-.165.132-.203a.908.908 0 0 1 .197-.042.652.652 0 0 0 .154-.032c.02-.01.03-.031.03-.062 0-.068-.045-.102-.136-.102-.048 0-.083.009-.105.026-.022.017-.037.047-.044.089h-.196a.252.252 0 0 1 .098-.196.415.415 0 0 1 .252-.066c.121 0 .21.025.267.074a.165.165 0 0 1 .053.074.418.418 0 0 1 .013.124l-.002.157-.001.162c0 .057.002.098.005.125a.526.526 0 0 0 .024.087Zm-.228-.377a.387.387 0 0 1-.146.039.357.357 0 0 0-.107.029c-.031.017-.046.045-.046.085 0 .032.01.058.031.076.02.018.049.027.086.027.061 0 .11-.021.148-.064a.133.133 0 0 0 .028-.046.215.215 0 0 0 .008-.063v-.083h-.002ZM11.058 12.574v.109a.292.292 0 0 1 .254-.134c.064 0 .118.016.162.049.035.026.06.058.074.098a.515.515 0 0 1 .021.166v.491h-.207v-.447a.33.33 0 0 0-.013-.11.098.098 0 0 0-.041-.049.17.17 0 0 0-.163.004.137.137 0 0 0-.057.062.343.343 0 0 0-.021.138v.402h-.207v-.779h.198ZM12.435 13.353h-.212a.293.293 0 0 1-.014-.078.338.338 0 0 1-.251.099.284.284 0 0 1-.187-.056.223.223 0 0 1-.077-.18c0-.098.044-.165.132-.203a.908.908 0 0 1 .197-.042.652.652 0 0 0 .154-.032c.02-.01.03-.031.03-.062 0-.068-.045-.102-.136-.102-.048 0-.083.009-.105.026-.022.017-.037.047-.044.089h-.196a.252.252 0 0 1 .098-.196.415.415 0 0 1 .252-.066c.121 0 .21.025.267.074a.165.165 0 0 1 .053.074.418.418 0 0 1 .013.124l-.002.157-.001.162c0 .057.002.098.005.125a.647.647 0 0 0 .024.087Zm-.228-.377a.387.387 0 0 1-.146.039.357.357 0 0 0-.107.029c-.031.017-.046.045-.046.085 0 .032.01.058.031.076.02.018.049.027.086.027.061 0 .11-.021.148-.064a.133.133 0 0 0 .028-.046.215.215 0 0 0 .008-.063v-.083h-.002Z" fill="#000"/></g><defs><clipPath id="a"><path fill="#fff" d="M0 0h24v24H0z"/></clipPath></defs></svg>
